packages/components/Atoms/Icon/assets/img/rpl_icon_help.svg

<svg width="20" height="20" overflow="visible" xmlns="http://www.w3.org/2000/svg"><path fill-rule="evenodd" clip-rule="evenodd" d="M10 2c-4.411 0-8 3.589-8 8s3.589 8 8 8 8-3.589 8-8-3.589-8-8-8zm0 18C4.486 20 0 15.514 0 10S4.486 0 10 0s10 4.486 10 10-4.486 10-10 10z" fill="inherit"/><path fill-rule="evenodd" clip-rule="evenodd" d="M9 14.015h2v-2L9 12v2.015zM9.007 8.018c-.044-.624.274-1.161.801-1.161.502 0 .753.324.753.762 0 .201-.152.49-.339.702l-.893 1.026c-.247.333-.321.499-.323.665v1l1.994.003.001-.276c0-.212.013-.357.125-.495l.851-1.008c.349-.451.639-.952.639-1.605 0-1.74-1.33-2.631-2.808-2.631C8.292 5 7 6.315 7 8.018h2.007z" fill="inherit"/></svg>

<svg width="20" height="20" viewBox="0 0 20 20" overflow="visible" xmlns="http://www.w3.org/2000/svg">
  <path fill-rule="evenodd" clip-rule="evenodd" d="M10 2C5.589 2 2 5.589 2 10C2 14.411 5.589 18 10 18C14.411 18 18 14.411 18 10C18 5.589 14.411 2 10 2ZM10 20C4.486 20 0 15.514 0 10C0 4.486 4.486 0 10 0C15.514 0 20 4.486 20 10C20 15.514 15.514 20 10 20Z"
    fill="inherit" />
  <path fill-rule="evenodd" clip-rule="evenodd" d="M9 14.015H11V12.015L9 12V14.015Z" fill="inherit" />
  <path fill-rule="evenodd" clip-rule="evenodd" d="M9.007 8.018C8.963 7.394 9.281 6.857 9.808 6.857C10.31 6.857 10.561 7.181 10.561 7.619C10.561 7.82 10.409 8.109 10.222 8.321L9.329 9.347C9.082 9.68 9.008 9.846 9.006 10.012V11.012L11 11.015L11.001 10.739C11.001 10.527 11.014 10.382 11.126 10.244L11.977 9.236C12.326 8.785 12.616 8.284 12.616 7.631C12.616 5.891 11.286 5 9.808 5C8.292 5 7 6.315 7 8.018H9.007Z"
    fill="inherit" />
</svg>
